X: 158
T:Katie's Rambles
% Nottingham Music Database
S:Kevin Briggs, via EF
M:6/8
K:D
P:A
d/2B/2|"D"A2d "C"=cBA|"D"def "G"gag|"D"fed "A"cBA|"Em"GFG "A7"AFD|
"D"A2d "C"=cBA|"D"def "G"gag|"D"fed "A"cBA|"A7"Adc "D"d2:|
P:B
f/2e/2|"D"dfa dfa|"D"dfa ag"c#"f|"C"=ceg ceg|"C"=ceg gfe|
"D"fef "A7/e"gfg|"D/f+"aga "G"bag|"D/a"fed "A"cBA|"A7"Adc "D"d2:|<end>
<start>
